lib/brands/icons/airbnb.svg

<svg xmlns="http://www.w3.org/2000/svg" fill="none" aria-hidden="true" viewBox="0 0 48 48"><g id="airbnb-Icon"><g id="Airbnb"><path id="Path" fill="#FF5A5F" d="M24 3C12.4172 3 3 12.4172 3 24C3 35.5828 12.4172 45 24 45C35.5828 45 45 35.5828 45 24C45 12.4172 35.5828 3 24 3Z"/><path id="vector" fill="white" d="M24 29.5301C22.6232 27.7982 21.8133 26.2802 21.5434 24.9813C21.2734 23.926 21.3814 23.0871 21.8403 22.4647C22.3263 21.7341 23.0551 21.3823 24 21.3823C24.9449 21.3823 25.6737 21.7341 26.1597 22.4647C26.6186 23.0871 26.7266 23.926 26.4566 24.9813C26.1597 26.3072 25.3498 27.8226 24 29.5301ZM31.5372 33.5349C29.2426 34.5361 26.9722 32.9396 25.0285 30.7748C28.2437 26.7402 28.8377 23.6013 27.4582 21.5691C26.6483 20.4055 25.4875 19.8372 24 19.8372C21.0035 19.8372 19.354 22.3809 20.0019 25.3331C20.3799 26.9296 21.3787 28.7453 22.9715 30.7748C21.7768 32.1018 20.2094 33.607 18.3282 33.7785C15.6016 34.1844 13.4662 31.5325 14.4381 28.7967L21.3517 14.4496C21.9418 13.371 22.6701 12.4472 23.9973 12.4472C24.9692 12.4472 25.725 13.0154 26.049 13.4755L33.5565 28.7967C34.2921 30.648 33.3593 32.7463 31.5372 33.5349ZM35.0197 28.2555L28.592 14.8555C27.3772 12.366 26.5133 10.875 24 10.875C21.5164 10.875 20.4608 12.6068 19.381 14.8555L12.9803 28.2555C11.6035 32.0466 14.4381 35.375 17.8693 35.375C18.0852 35.375 18.2996 35.3479 18.5171 35.3479C20.2989 35.1315 22.1373 33.9949 24 31.9627C25.8627 33.9922 27.7011 35.1315 29.4829 35.3479C29.7004 35.3479 29.9148 35.375 30.1308 35.375C33.5619 35.3777 36.3965 32.0466 35.0197 28.2555Z"/></g></g></svg>

<svg xmlns="http://www.w3.org/2000/svg" fill="none" aria-hidden="true" viewBox="0 0 48 48"><path fill="#FF5A5F" d="M24 3C12.417 3 3 12.417 3 24s9.417 21 21 21 21-9.417 21-21S35.583 3 24 3Z"/><path fill="#fff" d="M24 29.53c-1.377-1.732-2.187-3.25-2.457-4.549-.27-1.055-.162-1.894.297-2.516.486-.73 1.215-1.083 2.16-1.083.945 0 1.674.352 2.16 1.083.459.622.567 1.461.297 2.516-.297 1.326-1.107 2.842-2.457 4.55Zm7.537 4.005c-2.294 1.001-4.565-.595-6.508-2.76 3.215-4.035 3.809-7.174 2.43-9.206-.81-1.163-1.971-1.732-3.459-1.732-2.997 0-4.646 2.544-3.998 5.496.378 1.597 1.377 3.412 2.97 5.442-1.195 1.327-2.763 2.832-4.644 3.004-2.726.405-4.862-2.247-3.89-4.982l6.914-14.347c.59-1.079 1.318-2.003 2.645-2.003.972 0 1.728.568 2.052 1.029l7.508 15.32c.735 1.852-.198 3.95-2.02 4.739Zm3.483-5.28-6.428-13.4c-1.215-2.489-2.079-3.98-4.592-3.98-2.484 0-3.54 1.732-4.619 3.98l-6.4 13.4c-1.377 3.792 1.457 7.12 4.888 7.12.216 0 .43-.027.648-.027 1.782-.216 3.62-1.353 5.483-3.385 1.863 2.03 3.701 3.169 5.483 3.385.217 0 .432.027.648.027 3.43.003 6.266-3.328 4.889-7.12Z"/></svg>
